src/images_karasa_jaga_svg/cmd/lc_underline.svg

<svg height="24" viewBox="0 0 6.3499999 6.3500003" width="24" xmlns="http://www.w3.org/2000/svg" xmlns:xlink="http://www.w3.org/1999/xlink"><linearGradient id="a" gradientUnits="userSpaceOnUse" x1="14.408567" x2="16.933138" y1="5.576836" y2="21.986544"><stop offset="0" stop-color="#3b3e22"/><stop offset="1" stop-color="#454545" stop-opacity="0"/></linearGradient><linearGradient id="b" gradientUnits="userSpaceOnUse" x1="15.216479" x2="16.17994" y1="27.898503" y2="5.738897"><stop offset="0" stop-color="#555"/><stop offset="1"/></linearGradient><g transform="matrix(.171875 0 0 .171875 .245001 .266725)"><text style="font-size:32.044254;font-family:sans-serif;letter-spacing:0;word-spacing:0;stroke-width:.801106;fill:url(#b)" transform="scale(1.0465633 .95550838)" x="4.023475" y="27.700993"><tspan fill="url(#b)" font-family="FreeSerif" font-size="33.72113" stroke-width=".801106" x="4.023475" y="27.700993">U</tspan></text><rect fill="#010101" height="1.539372" rx=".472075" ry=".607224" stroke-width=".264583" width="27.708702" x="3.078745" y="29.24855"/><path d="m25.324219 21.146484c1.513237.425735 2.830002.941469 3.769531 1.791016 2.241825 1.939029 2.720703 5.140395 2.720703 9.755859v33.396485a62.445978 34.9086 0 0 0 9.818359 2.220703v-35.617188c0-4.5439.423597-7.671854 2.558594-9.621093.99215-.905829 2.380791-1.471244 4.007813-1.925782zm60.390625 0c2.159588.682813 3.932067 1.649133 5.083984 3.103516 2.156444 2.638967 2.773438 6.855421 2.773438 13.070312v26.925782a62.445978 34.9086 0 0 0 2.078125-.830078v-26.095704c0-6.292263.473584-10.402367 2.503906-12.951171 1.255872-1.576582 3.469353-2.507576 6.132813-3.222657z" fill="url(#a)" transform="scale(.26458334)"/><text style="font-size:32.044254;font-family:sans-serif;letter-spacing:0;word-spacing:0;stroke-width:.801106;fill:url(#b)" transform="scale(1.0465633 .95550838)" x="4.023475" y="27.700993"><tspan fill="url(#b)" font-family="FreeSerif" font-size="33.72113" stroke-width=".801106" x="4.023475" y="27.700993">U</tspan></text></g></svg>

<?xml version="1.0" encoding="UTF-8" standalone="no"?>
<svg
   xmlns:dc="http://purl.org/dc/elements/1.1/"
   xmlns:cc="http://creativecommons.org/ns#"
   xmlns:rdf="http://www.w3.org/1999/02/22-rdf-syntax-ns#"
   xmlns:svg="http://www.w3.org/2000/svg"
   xmlns="http://www.w3.org/2000/svg"
   xmlns:xlink="http://www.w3.org/1999/xlink"
   xmlns:sodipodi="http://sodipodi.sourceforge.net/DTD/sodipodi-0.dtd"
   xmlns:inkscape="http://www.inkscape.org/namespaces/inkscape"
   height="128"
   viewBox="0 0 33.866666 33.866668"
   width="128"
   version="1.1"
   id="svg20"
   sodipodi:docname="lc_underline.svg"
   inkscape:version="0.92.3 (unknown)"
   inkscape:export-filename="/home/rizmut/Dokumen/Rizmut/Github/libreoffice-style-karasa-jaga/build/images_karasa_jaga/cmd/lc_underline.png"
   inkscape:export-xdpi="16.5"
   inkscape:export-ydpi="16.5">
  <metadata
     id="metadata26">
    <rdf:RDF>
      <cc:Work
         rdf:about="">
        <dc:format>image/svg+xml</dc:format>
        <dc:type
           rdf:resource="http://purl.org/dc/dcmitype/StillImage" />
        <dc:title></dc:title>
      </cc:Work>
    </rdf:RDF>
  </metadata>
  <defs
     id="defs24">
    <linearGradient
       inkscape:collect="always"
       xlink:href="#b"
       id="linearGradient846"
       x1="52.3629"
       y1="11.638"
       x2="63.9991"
       y2="87.2733"
       gradientUnits="userSpaceOnUse" />
  </defs>
  <sodipodi:namedview
     pagecolor="#ffffff"
     bordercolor="#666666"
     borderopacity="1"
     objecttolerance="10"
     gridtolerance="10"
     guidetolerance="10"
     inkscape:pageopacity="0"
     inkscape:pageshadow="2"
     inkscape:window-width="1366"
     inkscape:window-height="706"
     id="namedview22"
     showgrid="true"
     inkscape:zoom="3.6875"
     inkscape:cx="18.680032"
     inkscape:cy="77.852577"
     inkscape:window-x="0"
     inkscape:window-y="0"
     inkscape:window-maximized="1"
     inkscape:current-layer="svg20">
    <inkscape:grid
       type="xygrid"
       id="grid825"
       spacingx="1.5393723"
       spacingy="1.5393723"
       empspacing="1" />
  </sodipodi:namedview>
  <linearGradient
     id="a"
     gradientUnits="userSpaceOnUse"
     x1="18.99608880061"
     x2="20.22575014415"
     y1="294.82258903077"
     y2="266.54036534865"
     gradientTransform="matrix(0.78351691,0,0,0.78351691,0.3327231,-203.09999)">
    <stop
       offset="0"
       stop-color="#555"
       id="stop2" />
    <stop
       offset="1"
       id="stop4" />
  </linearGradient>
  <linearGradient
     id="b"
     gradientUnits="userSpaceOnUse"
     x1="53.856667"
     x2="72.864624"
     y1="1.845663"
     y2="61.042988"
     gradientTransform="matrix(0.21695833,0,0,0.21695833,3.048,3.0518754)">
    <stop
       offset="0"
       stop-color="#3b3e22"
       id="stop7" />
    <stop
       offset="1"
       stop-color="#454545"
       stop-opacity="0"
       id="stop9" />
  </linearGradient>
  <text
     id="text14"
     y="27.700993"
     x="4.0234747"
     style="font-size:32.0442543px;font-family:sans-serif;letter-spacing:0;word-spacing:0;fill:url(#a);stroke-width:0.80110604"
     transform="scale(1.0465633,0.95550838)">
    <tspan
       style="font-style:normal;font-variant:normal;font-weight:normal;font-stretch:normal;font-size:33.72113037px;font-family:FreeSerif;-inkscape-font-specification:FreeSerif;fill:url(#a);stroke-width:0.80110604"
       id="tspan12"
       y="27.700993"
       x="4.0234747"
       font-weight="bold"
       font-size="43.038166">U</tspan>
  </text>
  <rect
     style="fill:#010101;stroke-width:0.26458335"
     height="1.5393723"
     rx="0.47207487"
     ry="0.60722405"
     width="27.708702"
     x="3.0787446"
     y="29.24855"
     id="rect21" />
  <path
     style="opacity:1;fill:url(#linearGradient846);fill-opacity:1;stroke:none;stroke-width:8;stroke-linecap:round;stroke-linejoin:round;stroke-miterlimit:4;stroke-dasharray:none;stroke-dashoffset:0;stroke-opacity:1"
     d="M 25.324219 21.146484 C 26.837456 21.572219 28.154221 22.087953 29.09375 22.9375 C 31.335575 24.876529 31.814453 28.077895 31.814453 32.693359 L 31.814453 66.089844 A 62.445978 34.9086 0 0 0 41.632812 68.310547 L 41.632812 32.693359 C 41.632812 28.149459 42.056409 25.021505 44.191406 23.072266 C 45.183556 22.166437 46.572197 21.601022 48.199219 21.146484 L 25.324219 21.146484 z M 85.714844 21.146484 C 87.874432 21.829297 89.646911 22.795617 90.798828 24.25 C 92.955272 26.888967 93.572266 31.105421 93.572266 37.320312 L 93.572266 64.246094 A 62.445978 34.9086 0 0 0 95.650391 63.416016 L 95.650391 37.320312 C 95.650391 31.028049 96.123975 26.917945 98.154297 24.369141 C 99.410169 22.792559 101.62365 21.861565 104.28711 21.146484 L 85.714844 21.146484 z "
     transform="scale(0.26458334)"
     id="path827" />
  <text
     transform="scale(1.0465633,0.95550838)"
     style="font-size:32.0442543px;font-family:sans-serif;letter-spacing:0;word-spacing:0;fill:url(#a);stroke-width:0.80110604"
     x="4.0234747"
     y="27.700993"
     id="text831">
    <tspan
       font-size="43.038166"
       font-weight="bold"
       x="4.0234747"
       y="27.700993"
       id="tspan829"
       style="font-style:normal;font-variant:normal;font-weight:normal;font-stretch:normal;font-size:33.72113037px;font-family:FreeSerif;-inkscape-font-specification:FreeSerif;fill:url(#a);stroke-width:0.80110604">U</tspan>
  </text>
</svg>
